build/img/icons/time.svg

<svg width="24" height="25" fill="none" xmlns="http://www.w3.org/2000/svg">
    <path d="M12 2.5c-5.514 0-10 4.486-10 10s4.486 10 10 10 10-4.486 10-10-4.486-10-10-10zm0 18c-4.411 0-8-3.589-8-8s3.589-8 8-8 8 3.589 8 8-3.589 8-8 8z" fill="#5CC773"/>
    <path d="M13 7.5h-2v6h6v-2h-4v-4z" fill="#5CC773"/>
</svg>

<svg width="24" height="25" viewBox="0 0 24 25" fill="none" xmlns="http://www.w3.org/2000/svg">
<path d="M12 2.5C6.486 2.5 2 6.986 2 12.5C2 18.014 6.486 22.5 12 22.5C17.514 22.5 22 18.014 22 12.5C22 6.986 17.514 2.5 12 2.5ZM12 20.5C7.589 20.5 4 16.911 4 12.5C4 8.089 7.589 4.5 12 4.5C16.411 4.5 20 8.089 20 12.5C20 16.911 16.411 20.5 12 20.5Z" fill="#5CC773"/>
<path d="M13 7.5H11V13.5H17V11.5H13V7.5Z" fill="#5CC773"/>
</svg>
